X: 305720
M: 2/4
L: 1/16
K: Em
e4 e4 | e2dc B2dc | cBAG BAGF | AGFE GFED |\
e4 e4 | e2dc B2dc | cBAG BAGF | E4 e4 H|]\
g4 g4 | g6 (dc) | B2B2 A2A2 |
g4 g4 | g6 dc | B2B2 A2A2 | G6 B2 \
|: B2d2c2f2 | g2d2 b4 :|\
g6 fe | dedc BcBA | GFGA _BA=B^c | d2D2 "^D.C."z4 |]



